assets/Microscope/Flat/microscope_flat.svg

<svg width="32" height="32" viewBox="0 0 32 32" fill="none" xmlns="http://www.w3.org/2000/svg">
<path d="M4.71839 18.0233C5.11525 17.458 5.8952 17.3215 6.46045 17.7184L18.5318 26.1936L17.0946 28.2406L5.02328 19.7653C4.45803 19.3685 4.32152 18.5885 4.71839 18.0233Z" fill="#5092FF"/>
<path d="M18.5013 2.80347C18.8302 2.3598 19.4615 2.25982 19.9114 2.58017L21.5841 3.77124C22.034 4.09158 22.1321 4.71094 21.8032 5.15461L13.1102 16.8809C12.4436 17.7801 11.1641 17.9827 10.2523 17.3335C9.34053 16.6842 9.14176 15.429 9.80835 14.5298L18.5013 2.80347Z" fill="#636363"/>
<path d="M18.0472 3.66594C16.8384 3.31432 15.3804 3.86071 14.5971 4.91739L11.7749 8.7243L11.9999 10.0001L10.6024 10.306L10.3989 10.5805C9.07399 12.3677 9.47824 14.8692 11.3018 16.1677C13.1254 17.4662 15.6778 17.07 17.0027 15.2828L17.1623 15.0675L16.9999 13.5001H18.3242L18.4883 13.2787C21.992 13.9302 23.8684 16.851 23.963 19.8545C24.0149 21.5041 23.5209 23.1307 22.4806 24.3899C21.4537 25.6329 19.8112 26.6185 17.3793 26.8486C16.5451 26.9276 15.9304 27.6956 16.0062 28.564C16.082 29.4325 16.8197 30.0725 17.6539 29.9935C20.7829 29.6974 23.1847 28.3804 24.7802 26.4491C26.3624 24.5339 27.069 22.1145 26.9946 19.751C26.8719 15.8564 24.6058 11.9837 20.5048 10.5586L21.2008 9.61967C21.9842 8.56299 22.0639 7.03517 21.3491 6.01708L18.0472 3.66594Z" fill="#BEBEBE"/>
<path d="M2 29.2C2 27.4327 3.43269 26 5.2 26H26.8C28.5673 26 30 27.4327 30 29.2C30 29.6418 29.6418 30 29.2 30H2.8C2.35817 30 2 29.6418 2 29.2Z" fill="#9B9B9B"/>
<path d="M11.7757 8.70947L18.3343 13.4746L17.1588 15.0927L10.6001 10.3275L11.7757 8.70947Z" fill="#D3D3D3"/>
</svg>

<svg xmlns="http://www.w3.org/2000/svg" width="32" height="32" fill="none"><path fill="#5092FF" d="M4.718 18.023a1.25 1.25 0 0 1 1.742-.305l12.072 8.476-1.437 2.047-12.072-8.476a1.25 1.25 0 0 1-.305-1.742Z"/><path fill="#636363" d="M18.501 2.803c.33-.443.96-.543 1.41-.223l1.673 1.191c.45.32.548.94.22 1.384L13.11 16.88a2.074 2.074 0 0 1-2.858.453 1.98 1.98 0 0 1-.444-2.804l8.693-11.727Z"/><path fill="#BEBEBE" d="M18.047 3.666c-1.209-.352-2.667.195-3.45 1.251l-2.822 3.807L12 10l-1.398.306-.203.275a3.949 3.949 0 0 0 .903 5.587c1.823 1.298 4.376.902 5.7-.885l.16-.215L17 13.5h1.324l.164-.221c3.504.651 5.38 3.572 5.475 6.576.052 1.65-.442 3.276-1.482 4.535-1.027 1.243-2.67 2.229-5.102 2.459-.834.079-1.449.847-1.373 1.715.076.869.814 1.509 1.648 1.43 3.129-.297 5.53-1.614 7.126-3.545 1.582-1.915 2.289-4.335 2.215-6.698-.123-3.895-2.39-7.767-6.49-9.192l.696-.94c.783-1.056.863-2.584.148-3.602l-3.302-2.351Z"/><path fill="#9B9B9B" d="M2 29.2A3.2 3.2 0 0 1 5.2 26h21.6a3.2 3.2 0 0 1 3.2 3.2.8.8 0 0 1-.8.8H2.8a.8.8 0 0 1-.8-.8Z"/><path fill="#D3D3D3" d="m11.776 8.71 6.558 4.765-1.175 1.618-6.559-4.765 1.176-1.619Z"/></svg>
